X: 1
T: Cruach An Choirce
M: 4/4
L: 1/8
R: hornpipe
K: Gmaj
GA| B2 BG ABGE|DGGF  GABd |egge dBGA| BAAG A2 GA|  
B2 BG ABGE|DGGF  GABd |egge dB (3 ABc|B2GF G2:|
(3 Bcd|edgd edBd|edge d2 (3 Bcd|edge dBGA|BAAG A2 Bd|
edgd edBd|edge d2 Bd|egge dB (3ABc|B2GF G2 (3 Bcd||
edgd edBd|eage d2 Bd|efge dBGA|BA{B}AG A2 GA|
B2 BG ABGE|DGGF  GABd |egge dB (3 ABc|B2GF G2||
